X:1
T:Bracondale, CM
T:Bracondale, CM
T:Josiah Booth (1852-1929)
T:Public Domain Courtesy of the Cyber Hymnal™
C:Josiah Booth (1852-1929)
Z:Public Domain
Z:Courtesy of the Cyber Hymnal™
%%score ( 1 2 ) ( 3 4 )
L:1/8
Q:1/4=130
M:3/2
K:D
V:1 treble 
V:2 treble 
V:3 bass 
V:4 bass 
V:1
 [DF]2 [DG]2 [DF]2 | A6 z2 A2 [EB]2 [EA]2 | [Dd]6 [Dd]2 [Dc]2 [DB]2 | (A4 B4) [CG]4 | %4
 [DF]6 [DF]2 [EG]2 [EF]2 | B6 z2 B2 [F=c]2 [FB]2 | [Ee]6 [Ed]2 [^Ec]2 [EB]2 | ([FA]4 [DF]4) [CE]4 | %8
 D6 |] %9
V:2
 x6 | D4 C4 x6 | x12 | D8 x4 | x12 | ^D4 E4 x6 | x12 | x12 | D6 |] %9
V:3
 [D,A,]2 [D,B,]2 [D,A,]2 | A,6 z2 A,2 [G,C]2 [G,C]2 | [F,A,]6 [F,,A,]2 [G,,A,]2 [G,,G,]2 | %3
 (F,4 E,4) [A,,A,]4 | [D,A,]6 [D,A,]2 [C,^A,]2 [F,A,]2 | B,4 z2 [A,^D]2 [A,D]2 x4 | %6
 (D4 B,2) [=G,B,]2 [^G,B,]2 [G,C]2 | (D4 A,4) [A,,G,]4 | [D,F,]6 |] %9
V:4
 x6 | F,4 E,4 x6 | x12 | A,,8 x4 | x12 | B,,6 (C4 B,2) x2 | ^G,6 x6 | A,8 x4 | x6 |] %9

